X: 14
T: Bread and Cheese
%R: reel
B: Kitty Bridges "Collection of Country Dances 1745" p.14
F: http://www.vwml.org/browse/browse-collections-dance-tune-books/browse-bridges1745
Z: 2015 John Chambers <jc:trillian.mit.edu>
N: This dance marks the phrases with the dots&lines icons, but in no logical fashion.
M: C|
L: 1/16
K: G
% - - - - - - - - - - - - - - - - - - - - - - - - - - - - -
a2g2 |\
f2d2d2d2 d4c4 | B2G2G2G2 B2d2d2ag |\
f2d2d2d2 e4^c4 | a2A2A2A2 (^c2e2e2) :|
|: g2 |\
fgaf efge fgaf efge | g2G2G2G2 B2d2d2g2 |\
fgaf efge fgaf efge | a2A2A2A2 (^c2e2e2) :|
% - - - - - - - - - - Dance description - - - - - - - - - -
%%center Bread and Cheese
%%begintext align
%% Cast off two Cup.l .| cast up again :|
%% Change Places and hands round all four
%% .| Foot it to your Partner, Right
%% hand and left.
%%endtext

%%sep 1 1 500
%%sep 1 1 500

